build/img/02.svg

<svg width="129" height="84" viewBox="0 0 129 84" fill="none" xmlns="http://www.w3.org/2000/svg">
<path d="M72.4915 79.8952V80.8952H73.4915H126.411H127.411V79.8952V66.4552V65.4552H126.411H98.3256L113.209 52.4039C113.209 52.4035 113.21 52.4032 113.21 52.4028C116.231 49.7683 118.786 47.4077 120.871 45.3223L120.877 45.3163C123.02 43.1369 124.652 40.7599 125.756 38.1841L125.758 38.1794C126.876 35.5334 127.411 32.2755 127.411 28.4452C127.411 23.2186 126.256 18.5778 123.916 14.5548C121.585 10.548 118.373 7.42673 114.295 5.20464C110.246 2.94427 105.666 1.8252 100.581 1.8252C95.0626 1.8252 90.1771 2.88295 85.9531 5.03136C81.7318 7.17841 78.422 10.2286 76.0472 14.1745C73.6632 18.1355 72.4915 22.8005 72.4915 28.1302V29.1302H73.4915H88.1915H89.2253L89.1909 28.0969C89.1269 26.1769 89.5567 24.4176 90.4783 22.797L90.4823 22.7898C91.4102 21.126 92.7019 19.8007 94.3735 18.8042L94.3783 18.8013C96.06 17.7859 98.0122 17.2652 100.266 17.2652C102.42 17.2652 104.246 17.7529 105.782 18.693L105.788 18.697L105.795 18.7008C107.344 19.6176 108.545 20.8944 109.406 22.5535L109.41 22.5606C110.269 24.1819 110.711 26.0647 110.711 28.2352C110.711 29.6405 110.284 31.2123 109.357 32.9656C108.455 34.6735 106.871 36.5585 104.54 38.6154L104.538 38.6172L72.8277 66.7572L72.4915 67.0556V67.5052V79.8952ZM15.587 5.46956L16.0745 6.34269L15.587 5.46957C11.2252 7.9049 7.81921 11.3109 5.38388 15.6727C2.94292 20.0446 1.7395 25.1178 1.7395 30.8602V53.5402C1.7395 59.2826 2.94292 64.3558 5.38388 68.7277C7.81921 73.0895 11.2252 76.4955 15.587 78.9308C19.9589 81.3718 25.0321 82.5752 30.7745 82.5752C36.5169 82.5752 41.5901 81.3718 45.962 78.9308C50.3238 76.4955 53.7298 73.0895 56.1651 68.7277C58.6061 64.3558 59.8095 59.2826 59.8095 53.5402V30.8602C59.8095 25.1178 58.6061 20.0446 56.1651 15.6727C53.7298 11.3109 50.3238 7.9049 45.962 5.46957C41.5901 3.02862 36.5169 1.8252 30.7745 1.8252C25.0321 1.8252 19.9589 3.02862 15.587 5.46956ZM37.0938 65.3825C35.2281 66.4762 33.1298 67.0302 30.7745 67.0302C28.4192 67.0302 26.321 66.4762 24.4552 65.3825C22.5728 64.279 21.0857 62.7919 19.9822 60.9095C18.8885 59.0437 18.3345 56.9455 18.3345 54.5902V29.7052C18.3345 27.3499 18.8885 25.2516 19.9822 23.3859C21.0857 21.5035 22.5728 20.0164 24.4552 18.9129C26.321 17.8192 28.4192 17.2652 30.7745 17.2652C33.1298 17.2652 35.2281 17.8192 37.0938 18.9129C38.9762 20.0164 40.4633 21.5035 41.5668 23.3859C42.6605 25.2516 43.2145 27.3499 43.2145 29.7052V54.5902C43.2145 56.9455 42.6605 59.0437 41.5668 60.9095C40.4633 62.7919 38.9762 64.279 37.0938 65.3825Z" stroke="#FFCC24" stroke-width="2"/>
</svg>

<?xml version="1.0" encoding="utf-8"?>
<!-- Generator: Adobe Illustrator 26.3.1, SVG Export Plug-In . SVG Version: 6.00 Build 0)  -->
<svg version="1.1" id="Слой_1" xmlns="http://www.w3.org/2000/svg" xmlns:xlink="http://www.w3.org/1999/xlink" x="0px" y="0px"
	 viewBox="0 0 129 84" style="enable-background:new 0 0 129 84;" xml:space="preserve">
<style type="text/css">
	.st0{fill:#FFFFFF;stroke:#FFCC24;stroke-width:2;}
</style>
<path class="st0" d="M72.5,79.9v1h1h52.9h1v-1V66.5v-1h-1H98.3l14.9-13.1c0,0,0,0,0,0c3-2.6,5.6-5,7.7-7.1l0,0
	c2.1-2.2,3.8-4.6,4.9-7.1l0,0c1.1-2.6,1.7-5.9,1.7-9.7c0-5.2-1.2-9.9-3.5-13.9c-2.3-4-5.5-7.1-9.6-9.4c-4-2.3-8.6-3.4-13.7-3.4
	C95.1,1.8,90.2,2.9,86,5c-4.2,2.1-7.5,5.2-9.9,9.1c-2.4,4-3.6,8.6-3.6,14v1h1h14.7h1l0-1c-0.1-1.9,0.4-3.7,1.3-5.3l0,0
	c0.9-1.7,2.2-3,3.9-4l0,0c1.7-1,3.6-1.5,5.9-1.5c2.2,0,4,0.5,5.5,1.4l0,0l0,0c1.5,0.9,2.8,2.2,3.6,3.9l0,0c0.9,1.6,1.3,3.5,1.3,5.7
	c0,1.4-0.4,3-1.4,4.7c-0.9,1.7-2.5,3.6-4.8,5.6l0,0L72.8,66.8l-0.3,0.3v0.4V79.9z M15.6,5.5l0.5,0.9L15.6,5.5
	c-4.4,2.4-7.8,5.8-10.2,10.2C2.9,20,1.7,25.1,1.7,30.9v22.7c0,5.7,1.2,10.8,3.6,15.2c2.4,4.4,5.8,7.8,10.2,10.2
	c4.4,2.4,9.4,3.6,15.2,3.6s10.8-1.2,15.2-3.6c4.4-2.4,7.8-5.8,10.2-10.2c2.4-4.4,3.6-9.4,3.6-15.2V30.9c0-5.7-1.2-10.8-3.6-15.2
	C53.7,11.3,50.3,7.9,46,5.5C41.6,3,36.5,1.8,30.8,1.8S20,3,15.6,5.5z M37.1,65.4c-1.9,1.1-4,1.6-6.3,1.6s-4.5-0.6-6.3-1.6
	c-1.9-1.1-3.4-2.6-4.5-4.5c-1.1-1.9-1.6-4-1.6-6.3V29.7c0-2.4,0.6-4.5,1.6-6.3c1.1-1.9,2.6-3.4,4.5-4.5c1.9-1.1,4-1.6,6.3-1.6
	s4.5,0.6,6.3,1.6c1.9,1.1,3.4,2.6,4.5,4.5c1.1,1.9,1.6,4,1.6,6.3v24.9c0,2.4-0.6,4.5-1.6,6.3C40.5,62.8,39,64.3,37.1,65.4z"/>
</svg>
